X: 1
T: Syrtos: Psaropoula
R: syrtos
O: Greece
M: 2/4
L: 1/16
K: C
cde "A"\
| "F"f3f f2f2 | "Dm"fefg fed2 | "C"e3e e2e2 | "Am"edef edc2 | "Dm"d3d d2d2 |
| "G7"dedc dcd2 | "G7"g^fga g=fed | "C"cBcd efgf | "G7"e2dc BcdB | "C"c8 |]
"B"\
[| "C"c3c c2d2 | e3e edc2 | "G7"d4 B2{A}G2 | "C"c8 |
w: 1.~Kse-ki-na mia psa-ro-pou-*la ap-to yia-lo,
w: 2.~E-hi me-sa pa-li-ka-*ria ap-to yia-lo,
w: 3.~Yia ha-ra sas pa-li-ka-*ria ke-sto yia-lo.
| "G7"d4 B2{A}G2 | "C"c8 "C"|| "F"f3f f2f2 | "Dm"fefg fed2 |
w: ap-to yia-lo. Kse-ki-na mia psa-*ro-*pou-*la
w: ap-to yia-lo. E-hi me-sa pa-*li-*ka-*ria
w: ke-sto yia-lo. Yia ha-ra sas pa-*li-*ka-*ria
| "C"e3e e2e2 | "Am"e2ef edc2 | "Dm"d3d d2d2 | "G7"d2de d^cd2 |
w: ap tin id-ra ti mik-*rou-*la ke pi-ge-ni yia sfoun-*ga-*ria
w: pou you-ta-ne yia sfoun-*ga-*ria yiou-sel ke o-mor-fia* ko-ral-lia
w: nas mas fe-re-te sfoun-*ga-*ria yiou-sel ke o-mor-fia* ko-ral-lia
| "G7"efgf e2d2 | "C"cBcd efgf | "G7"e2e2 dcd2 |["1-N" "C"c4 z :|["last" "C".c2 "G7".G2 "C".c2z2 |]
w:  o-_lo_ yia-_lo_______  o-lo yia-__lo. | lo.
w: ap-_to_ yia-_lo_______ ap-to yia-__lo. | lo.
w: ap-_to_ yia-_lo_______ ap-to yia-__lo. | lo.
